X: 4649
T: Boxing, The
R: reel
M: 4/4
K: Aminor
AEAc B2AG|EAAA ADEG|AEAc B2AG|EGG^F GDEG|
AEAc B2AG|EAAA ABcd|ecdB cBAG|1 EAAA A2EG:|2 EAAA A3e]|
|:fedf edcB|Addc d3e|fedf edcB|ABBA B3e|
fedf edcB|Addd deba|aged dcAG|1 EAAA A3e:|2 EAAA ADEG]|
|:Aa (3AAA e'Ad'c'|Aa (3AAA aAbc'|Aa (3AAA e'Ad'c'|Ag (3AAA gAbc'|
Af (3AAA e'Ad'c'|Ae (3AAA eAbA|aged dcAG|EGBA ADEG:|

